X: 32085
T: Pentland Hills
R: waltz
M: 3/4
K: Gmajor
B>A|G2 G2 d>c|{c}B4 g>f|e2 efgd|{c}B4 Bc/d/|G4 GA/B/|
E3 e dc|B2 cB "tr"A2 {GA}|G4:|B>A|G>A B2 g>f|e3 d B2|
g2 fef^d|e4 ef|g2 d2 {f}e2|edcBAG|d2 edcB|{B}A4 G>F|
E>F G2 d>c|{c}B2 B2 gf|e2 efgd|{c}B4 Bc/d/|G4 GA/B/|
E3 e dc|B2 c>B "tr"A2 {GA}|G4||

